X:4
T:Bal plin
%T:Bal
G:Kazimodal
R:Das Plin
C:Traditionnel
P:D5
S:Penno Skoulm
K:Em
P:D
Q:C3=72
M:12/8
|: Bcd "Em"He3 fdc "D"Hd3 | "Am"cce Hc3 "Bm"dBA HB3 :|
%%text Arr\^et 1 temps pour mieux repartir
Q:C3=156
M:4/4
|:"Em"e>f gf "G"eg "D"f2 | "C"e2 dc "Bm"BA B2 |\
"Em"e>f gf eg "D"f2 | df/2f/2 "Bm"fd "C"e2 "Em"e2 :|
